X:1
T:Fantaisie-Impromptu (theme)
C:Frédéric Chopin
M:4/4
L:1/4
Q:1/4=60
K:Db
% Moderato cantabile — Db major middle section, Op.66
% Range: Gb4–Db5 (G–d in K:Db). Uppercase = C4–B4, lowercase = C5–B5.
% _c = Cb5 (C natural in Db major, so explicit flat needed)
A | B d _c B | A G A2 | B d _c B | A G G2 |
B d _c B | A G _c d | B _c d _c | B4 |
d _c B _c | d _c B A | G A B _c | d4 |]
